X: 489
T: The new mail-coach
C:anon.
O:Ireland
B:Francis O'Neill: "The Dance Music of Ireland" (1907) no. 489
R:Reel
Z:Transcribed by Frank Nordberg - http://www.musicaviva.com
F:http://www.musicaviva.com/abc/tunes/ireland/oneill-1001/oneill-1001-048
9.abc
M:C|
L:1/8
K:D
(dB)|A>G (3FED FAAg|fgec dcBd|A>G (3FED FAAg|fgec d2:|(3ABc|d2fd adfd|
cded (3cBA Bc|d2fa a2fd|(3cBA Bc d2(3ABc|d2fd adfd|cded (3cBA Bc|defg aba
g|fgec dcdB|]
W:
W:
W:  From Musica Viva - http://www.musicaviva.com
W:  the Internet center for free sheet music downloads.


